X:1
T:Cabezón - Tiento sobre Cum Sancto Spirito
T:Cabezón - Tiento sobre ‘Cum Sancto Spiritu’
T:Antonio de Cabezón mid-16th c. 
T:de Beata Virgine, de Jusquin  
C:Antonio de Cabezón
%%score { ( 1 2 ) | ( 3 4 ) } { ( 5 7 ) | ( 6 8 ) }
L:1/8
Q:1/2=67
M:4/4
K:C
V:1 treble nm="Organ"
V:2 treble 
V:3 bass 
V:4 bass 
V:5 treble nm="Organ" snm="Org."
V:7 treble 
V:6 bass 
V:8 bass 
V:1
 d8- |[Q:1/2=69] d4 ^c4 |[Q:1/2=66] d4[Q:1/2=69] e4 | ^c4 d4- | d2 =c2 B4 | %5
[Q:1/2=67] A8[Q:1/2=70] |[Q:1/2=69] z4 c4 | d6[Q:1/2=65][Q:1/2=69] d2 | %8
[Q:1/2=67] e2[Q:1/2=71] f2 g2 e2 | f4[Q:1/2=65] e4- |[Q:1/2=70] e2 d2 c4 | %11
[Q:1/2=67] B4[Q:1/2=70] A4- | A2 B2 c4- | c4 B4 | A8 |[Q:1/2=66] G4 d4[Q:1/2=69] | %16
[Q:1/2=67] e4[Q:1/2=69] f4 | e2 d2 c2 B2 | A4 B4 | G2 A2 B2 c2 | d4[Q:1/2=67] G4 |[Q:1/2=70] z8 | %22
[Q:1/2=66] z8[Q:1/2=71] |[Q:1/2=67] z4[Q:1/2=69] d4- |[Q:1/2=68] d4[Q:1/2=70] ^c4 | %25
[Q:1/2=69] d4[Q:1/2=70] e4 |[Q:1/2=69] c4[Q:1/2=70] d4 |[Q:1/2=69] e2[Q:1/2=73] d2 c2 B2 | %28
[Q:1/2=70] A2[Q:1/2=74] c2 B2 A2 | B2 c2[Q:1/2=69] d4 |[Q:1/2=68] B4[Q:1/2=73] ^c4 | %31
[Q:1/2=68] d8[Q:1/2=75] | z4[Q:1/2=67] f4[Q:1/2=73] |[Q:1/2=69] f4[Q:1/2=73] e4 | %34
[Q:1/2=69] d4[Q:1/2=66] g4- |[Q:1/2=69] g4 f4 |[Q:1/2=68] e8[Q:1/2=73] | d4[Q:1/2=66] e4- | %38
[Q:1/2=68] e2[Q:1/2=72] d2 c4- |[Q:1/2=68] c4[Q:1/2=71] B2 A2 |[Q:1/2=67] B4[Q:1/2=69] c4 | %41
[Q:1/2=66] d8[Q:1/2=67] |[Q:1/2=65] z4[Q:1/2=71] B4 |[Q:1/2=69] B4[Q:1/2=71] d4 | %44
[Q:1/2=68] c6[Q:1/2=72] BA |[Q:1/2=68] B6[Q:1/2=73] cd |[Q:1/2=66] e4[Q:1/2=73][Q:1/2=68] c4 | %47
[Q:1/2=73] d2 c2 B2 A2 | G8 | z4[Q:1/2=74] z2 B2 |[Q:1/2=66] e4 ^c4[Q:1/2=71] | %51
[Q:1/2=65] d8-[Q:1/2=68] |[Q:1/2=66] d2[Q:1/2=73] d2 edef |[Q:1/2=65] g6[Q:1/2=73][Q:1/2=68] g2 | %54
[Q:1/2=66] g4[Q:1/2=71] ^f4 |[Q:1/2=65] g4[Q:1/2=71] d4 | e4[Q:1/2=65] f4- | %57
[Q:1/2=71] f2[Q:1/2=73] e2[Q:1/2=65] ^c4 |[Q:1/2=71] d4[Q:1/2=65] e4-[Q:1/2=73] | %59
[Q:1/2=71] e2[Q:1/2=73] d2 d4- | d4[Q:1/2=72] ^c4 | d8[Q:1/2=66] | %62
[Q:1/2=72] z8[Q:1/2=74][Q:1/2=72] | z4[Q:1/2=69] A4 | %64
[Q:1/2=73] B4[Q:1/2=74][Q:1/2=72] c4-[Q:1/2=75] | c2 B2 A2 G2 |[Q:1/2=66] A8[Q:1/2=72] | %67
[Q:1/2=69] G8-[Q:1/2=73] |[Q:1/2=68] G4[Q:1/2=74] z4 |[Q:1/2=69] z4 G4-[Q:1/2=74] | %70
[Q:1/2=70] G4 F4[Q:1/2=74] |[Q:1/2=69] A4[Q:1/2=74] B4 |[Q:1/2=66] c6[Q:1/2=74] B2 | %73
 A2 G2[Q:1/2=69] F2[Q:1/2=74] E2 | D4 A4- | A4[Q:1/2=69] G4[Q:1/2=74] | B4[Q:1/2=73] ^c4 | %77
[Q:1/2=74] d4[Q:1/2=69] f4- | f4[Q:1/2=74] e4- | e2 c2[Q:1/2=73] e4 | %80
[Q:1/2=69] d2[Q:1/2=74] B2[Q:1/2=73] d4 |[Q:1/2=75] c4[Q:1/2=70] e4-[Q:1/2=75] | %82
[Q:1/2=73] e4[Q:1/2=75] d4- | d2 B2[Q:1/2=74] d4 |[Q:1/2=70] c2[Q:1/2=75] A2[Q:1/2=74] c4 | %85
[Q:1/2=76] B4[Q:1/2=71] d4-[Q:1/2=76] |[Q:1/2=74] d4 c4-[Q:1/2=76] | c2 A2[Q:1/2=75] c4 | %88
[Q:1/2=71] B2[Q:1/2=76] G2[Q:1/2=75] B4 |[Q:1/2=76] A4[Q:1/2=69] c4-[Q:1/2=74] | %90
[Q:1/2=72] c4 B4-[Q:1/2=74] | B2 G2[Q:1/2=73] B4 | %92
[Q:1/2=69] A2[Q:1/2=74] F2[Q:1/2=73] A4[Q:1/2=74] |[Q:1/2=68] G6[Q:1/2=67][Q:1/2=66]"^.8" F2 | %94
[Q:1/2=66]"^.2" D2[Q:1/2=65]"^.6" E2[Q:1/2=64]"^.9" F2[Q:1/2=64]"^.2" G2 | %95
[Q:1/2=63]"^.4" A2[Q:1/2=62]"^.6" _B2[Q:1/2=61]"^.7" A4-[Q:1/2=60]"^.9" | %96
[Q:1/2=59]"^.9" A2[Q:1/2=59] G2[Q:1/2=58] G4-[Q:1/2=57] |[Q:1/2=56] G4[Q:1/2=52]"^.4" ^F4 | %98
[Q:1/2=24] G8 |] %99
V:2
 z8 | z8 | z8 | z8 | G8- | G4 ^F4 | G4 A4 | ^F4 G4- | G2 =F2 E4 | D4 C4- | C2 D2 E2 ^F2 | %11
 G2 E2 =F2 G2 | A6 E2 | F4 G4- | G4 F4 | G8- | G4 A4 | G4 E4 | F4 D4 | G6 G2 | A2 B2 c4- | %21
 c2 B2 A4 | z4 G4- | G4 ^F4 | G4 A4 | ^F4 G2 =F2 | E4 D4 | C4 E4 | ^F4 G2 =F2 | E4 F4 | E8 | %31
 D6 E2 | F2 G2 A4- | A2 B2 c4 | G4 _B4- | B4 A4- | A2 G2 E2 F2 | G8 | C2 D2 E2 F2 | G2 E2 F4- | %40
 F4 E4 | D8 | z4 D4 | G8 | G4 ^F4 | G8 | z2 E2 A4 | ^F4 G2 =F2 | E2 D2 C2 E2 | D8 | G8- | G4 ^F4 | %52
 G8- | G4 G4 | E4 A4 | G8 | z8 | z8 | z8 | z8 | z4 G4 | A4 _B4- | B2 A2 F4 | G4 A4- | A2 G2 G4- | %65
 G4 ^F2 E2 | ^F8 | G8 | z8 | G8 | E4 F4- | F4 E2 D2 | C4 G4 | E4 F4- | F4 E4 | D2 C2 B,2 A,2 | %76
 G,4 G4 | F4 D4 | F2 E2 C2 D2 | E2 F2 G4 | z4 D4 | F4 E2 D2 | E2 F2 G2 E2 | ^F4 ^G4 | A4 =G4 | %85
 G4 F4 | A6 G2 | E4 F4- | F4 E4 | F6 E2 | C4 G4- | G2 F2 D4 | F6 ED | E4"^.3" D4 | z8 | z4 F4 | %96
 E4 ^C4 | D8 | B,8 |] %99
V:3
 z8 | z8 | z8 | z8 | z8 | z8 | z8 | z8 | z8 | z8 | z8 | z4 D4- | D4 C4 | D4 E4 | ^C4 D4- | %15
 D2 =C2 B,4 | A,8 | z4 C4 | D6 D2 | E2 F2 G2 E2 | F4 E4- | E2 D2 C4 | z8 | z8 | z8 | z8 | z8 | z8 | %28
 z8 | z8 | z8 | z8 | z4 D4- | D4 C4 | D4 E4 | ^C4 D4- | D4 =C4 | B,4 G,4 | A,8 | G,4 D4- | D4 C4 | %41
 B,4 A,4 | G,8 | z4 B,4 | E4 C4 | z8 | z8 | z4 G,4 | C8- | C4 B,4 | C2 B,2 A,2 G,2 | A,8 | G,8 | %53
 z8 | z8 | z8 | z4 D4 | E4 F4- | F2 E2 ^C4 | D4 F4 | E2 D2 E4 | D8 | z4 D4 | E4 F4- | F2 E2 D2 C2 | %65
 D8 | z4 D4- | D4 C4 | E4 ^F4 | G2 =F2 E2 D2 | C2 B,2 A,2 G,2 | F,4 G,4 | E,4 E4 | ^C4 D4- | %74
 D4 =C2 B,2 | A,4 D4- | D4 G,4 | A,8 | z8 | z8 | z8 | A,4 C2 B,2 | G,2 A,2 B,2 C2 | D4 B,4 | %84
 A,4 E4 | D6 C2 | A,2 B,2 C2 D2 | E4 C4 | D4 B,4 | C8 | z4 E4- | E2 D2 B,2 C2 | D8 | B,4 G,2 A,2 | %94
 B,2 C2 D4- | D2 C2 A,2 B,2 | C2 B,2 A,2 G,2 | A,8 | G,8 |] %99
V:4
 z8 | z8 | z8 | z8 | z8 | z8 | z8 | z8 | z8 | z8 | z8 | z8 | z8 | z8 | z8 | G,8- | G,4 F,4 | %17
 G,4 A,4 | F,4 G,4- | G,2 F,2 E,4 | D,4 C,4 | E,6 F,2 | G,4 E,4 | D,8 | z8 | z8 | z8 | z8 | %28
 z4 G,4- | G,4 F,4 | G,4 A,4 | ^F,4 G,4 | D,6 E,2 | F,2 G,2 A,4 | _B,4 G,4 | A,8 | z8 | z8 | z8 | %39
 z4 D,4 | G,8- | G,4 ^F,4 | G,8- | G,4 G,4 | A,8 | G,8 | z8 | z8 | E,4 A,4 | ^F,4 G,4 | C,4 E,4 | %51
 D,8 | G,,8 | z8 | z8 | z8 | z8 | z8 | z8 | z8 | z8 | z4 G,4 | A,4 _B,4- | B,2 A,2 F,4 | G,4 E,4 | %65
 D,8 | D8 | B,4 C4- | C4 B,2 A,2 | G,8 | z8 | z8 | z8 | z8 | z4 A,4 | F,4 G,4- | G,4 F,2 E,2 | %77
 D,8 | z8 | z8 | z8 | z8 | z8 | z8 | z4 E,4 | G,2 F,2 D,2 E,2 | F,2 G,2 A,2 B,2 | C4 A,4 | %88
 G,4 G,4 | F,4 A,4- | A,2 G,2 E,4 | G,6 F,2 | D,4 F,4 | E,4 G,4- | G,2 F,2 D,4 | F,6 E,2 | %96
 C,4 E,4 | D,8 | G,,8 |] %99
V:5
 z8 | z8 | z8 | z8 | z8 | z8 | z8 | z8 | z8 | z8 | z8 | z8 | z8 | z8 | z8 | z8 | z8 | z8 | z8 | %19
 z8 | z8 | z8 | z8 | z8 | z8 | z8 | z8 | z8 | z8 | z8 | z8 | z8 | z8 | z8 | z8 | z8 | z8 | z8 | %38
 z8 | z8 | z8 | z8 | z8 | z8 | z8 | z8 | z8 | z8 | z8 | z8 | z8 | z8 | z8 | z8 | z8 | z4 d4 | %56
 e4 f4- | f2 e2 ^c4 | d4 e4- | e2 d2 d4- | d4 ^c4 | d8 | z8 | z4 A4 | B4 c4- | c2 B2 A2 G2 | A8 | %67
 z8 | z8 | z8 | z8 | z8 | z8 | z8 | z8 | z8 | z8 | z8 | z8 | z8 | z8 | z8 | z8 | z8 | z8 | z8 | %86
 z8 | z8 | z8 | z8 | z8 | z8 | z8 | z8 | z8 | z8 | z8 | z8 | z8 |] %99
V:6
 z8 | z8 | z8 | z8 | z8 | z8 | z8 | z8 | z8 | z8 | z8 | z8 | z8 | z8 | z8 | z8 | z8 | z8 | z8 | %19
 z8 | z8 | z8 | z8 | z8 | z8 | z8 | z8 | z8 | z8 | z8 | z8 | z8 | z8 | z8 | z8 | z8 | z8 | z8 | %38
 z8 | z8 | z8 | z8 | z8 | z8 | z8 | z8 | z8 | z8 | z8 | z8 | z8 | z8 | z8 | z8 | z8 | z8 | z4 D4 | %57
 E4 F4- | F2 E2 ^C4 | D4 F4 | E2 D2 E4 | D8 | z4 D4 | E4 F4- | F2 E2 D2 C2 | D8 | z4 D4 | z8 | z8 | %69
 z8 | z8 | z8 | z8 | z8 | z8 | z8 | z8 | z8 | z8 | z8 | z8 | z8 | z8 | z8 | z8 | z8 | z8 | z8 | %88
 z8 | z8 | z8 | z8 | z8 | z8 | z8 | z8 | z8 | z8 | z8 |] %99
V:7
 x8 | x8 | x8 | x8 | x8 | x8 | x8 | x8 | x8 | x8 | x8 | x8 | x8 | x8 | x8 | x8 | x8 | x8 | x8 | %19
 x8 | x8 | x8 | x8 | x8 | x8 | x8 | x8 | x8 | x8 | x8 | x8 | x8 | x8 | x8 | x8 | x8 | x8 | x8 | %38
 x8 | x8 | x8 | x8 | x8 | x8 | x8 | x8 | x8 | x8 | x8 | x8 | x8 | x8 | x8 | x8 | x8 | x8 | z8 | %57
 z8 | z8 | z8 | z4 G4 | A4 _B4- | B2 A2 F4 | G4 A4- | A2 G2 G4- | G4 ^F2 E2 | ^F8 | x8 | x8 | x8 | %70
 x8 | x8 | x8 | x8 | x8 | x8 | x8 | x8 | x8 | x8 | x8 | x8 | x8 | x8 | x8 | x8 | x8 | x8 | x8 | %89
 x8 | x8 | x8 | x8 | x8 | x8 | x8 | x8 | x8 | x8 |] %99
V:8
 x8 | x8 | x8 | x8 | x8 | x8 | x8 | x8 | x8 | x8 | x8 | x8 | x8 | x8 | x8 | x8 | x8 | x8 | x8 | %19
 x8 | x8 | x8 | x8 | x8 | x8 | x8 | x8 | x8 | x8 | x8 | x8 | x8 | x8 | x8 | x8 | x8 | x8 | x8 | %38
 x8 | x8 | x8 | x8 | x8 | x8 | x8 | x8 | x8 | x8 | x8 | x8 | x8 | x8 | x8 | x8 | x8 | x8 | z8 | %57
 z8 | z8 | z8 | z8 | z4 G,4 | A,4 _B,4- | B,2 A,2 F,4 | G,4 E,4 | D,8 | D8 | x8 | x8 | x8 | x8 | %71
 x8 | x8 | x8 | x8 | x8 | x8 | x8 | x8 | x8 | x8 | x8 | x8 | x8 | x8 | x8 | x8 | x8 | x8 | x8 | %90
 x8 | x8 | x8 | x8 | x8 | x8 | x8 | x8 | x8 |] %99

